src/components/site/Banner/asset/banner_bg.svg

<svg width="2874" height="620" fill="none" xmlns="http://www.w3.org/2000/svg"><g clip-path="url(#clip0)"><mask id="a" maskUnits="userSpaceOnUse" x="0" y="0" width="2874" height="616"><path fill-rule="evenodd" clip-rule="evenodd" d="M0 500s383.5 192 1418 80 1456 0 1456 0V0H0v500z" fill="#fff"/></mask><g mask="url(#a)"><path fill="url(#paint0_linear)" d="M0 0h2874v620H0z"/><path fill-rule="evenodd" clip-rule="evenodd" d="M1848 870c281.11 0 509-227.887 509-509s-227.89-509-509-509-509 227.887-509 509 227.89 509 509 509z" fill="url(#paint1_linear)"/><path fill-rule="evenodd" clip-rule="evenodd" d="M1115 530c204.35 0 370-165.655 370-370s-165.65-370-370-370c-204.345 0-370 165.655-370 370s165.655 370 370 370z" fill="url(#paint2_linear)"/><path fill-rule="evenodd" clip-rule="evenodd" d="M2175.5 720c104.66 0 189.5-84.842 189.5-189.5S2280.16 341 2175.5 341 1986 425.842 1986 530.5 2070.84 720 2175.5 720z" fill="url(#paint3_linear)"/><path opacity=".684" fill-rule="evenodd" clip-rule="evenodd" d="M689 308c146.355 0 265-118.645 265-265 0-146.355-118.645-265-265-265-146.355 0-265 118.645-265 265 0 146.355 118.645 265 265 265z" fill="url(#paint4_linear)"/></g></g><defs><linearGradient id="paint0_linear" x1="-1140.23" y1="288.934" x2="-936.731" y2="1290.84" gradientUnits="userSpaceOnUse"><stop stop-color="#FFC85D"/><stop offset="1" stop-color="#FF9E64"/></linearGradient><linearGradient id="paint1_linear" x1="1339" y1="-148" x2="1339" y2="870" gradientUnits="userSpaceOnUse"><stop stop-color="#FFA561"/><stop offset="1" stop-color="#FFC75D" stop-opacity=".01"/></linearGradient><linearGradient id="paint2_linear" x1="1485" y1="530" x2="1485" y2="-210" gradientUnits="userSpaceOnUse"><stop stop-color="#FFCC6E" stop-opacity=".395"/><stop offset="1" stop-color="#FFAE61" stop-opacity=".01"/></linearGradient><linearGradient id="paint3_linear" x1="2004.33" y1="368.134" x2="1778.9" y2="738.417" gradientUnits="userSpaceOnUse"><stop stop-color="#FFAE56" stop-opacity=".395"/><stop offset="1" stop-color="#FF8613" stop-opacity=".01"/></linearGradient><linearGradient id="paint4_linear" x1="1127.19" y1="-18.943" x2="613.481" y2="-517.237" gradientUnits="userSpaceOnUse"><stop stop-color="#FFC160"/><stop offset="1" stop-color="#FF8613" stop-opacity=".01"/></linearGradient><clipPath id="clip0"><path fill="#fff" d="M0 0h2874v620H0z"/></clipPath></defs></svg>

<svg width="2874" height="620" viewBox="0 0 2874 620" fill="none" xmlns="http://www.w3.org/2000/svg">
<g clip-path="url(#clip0)">
<mask id="mask0" mask-type="alpha" maskUnits="userSpaceOnUse" x="0" y="0" width="2874" height="616">
<path fill-rule="evenodd" clip-rule="evenodd" d="M0 500C0 500 383.5 692 1418 580C2452.5 468 2874 580 2874 580V0H0L0 500Z" fill="white"/>
</mask>
<g mask="url(#mask0)">
<rect width="2874" height="620" fill="url(#paint0_linear)"/>
<path fill-rule="evenodd" clip-rule="evenodd" d="M1848 870C2129.11 870 2357 642.113 2357 361C2357 79.8871 2129.11 -148 1848 -148C1566.89 -148 1339 79.8871 1339 361C1339 642.113 1566.89 870 1848 870Z" fill="url(#paint1_linear)"/>
<path fill-rule="evenodd" clip-rule="evenodd" d="M1115 530C1319.35 530 1485 364.345 1485 160C1485 -44.3454 1319.35 -210 1115 -210C910.655 -210 745 -44.3454 745 160C745 364.345 910.655 530 1115 530Z" fill="url(#paint2_linear)"/>
<path fill-rule="evenodd" clip-rule="evenodd" d="M2175.5 720C2280.16 720 2365 635.158 2365 530.5C2365 425.842 2280.16 341 2175.5 341C2070.84 341 1986 425.842 1986 530.5C1986 635.158 2070.84 720 2175.5 720Z" fill="url(#paint3_linear)"/>
<path opacity="0.683663" fill-rule="evenodd" clip-rule="evenodd" d="M689 308C835.355 308 954 189.355 954 43C954 -103.355 835.355 -222 689 -222C542.645 -222 424 -103.355 424 43C424 189.355 542.645 308 689 308Z" fill="url(#paint4_linear)"/>
</g>
</g>
<defs>
<linearGradient id="paint0_linear" x1="-1140.23" y1="288.934" x2="-936.731" y2="1290.84" gradientUnits="userSpaceOnUse">
<stop stop-color="#FFC85D"/>
<stop offset="1" stop-color="#FF9E64"/>
</linearGradient>
<linearGradient id="paint1_linear" x1="1339" y1="-148" x2="1339" y2="870" gradientUnits="userSpaceOnUse">
<stop stop-color="#FFA561"/>
<stop offset="1" stop-color="#FFC75D" stop-opacity="0.01"/>
</linearGradient>
<linearGradient id="paint2_linear" x1="1485" y1="530" x2="1485" y2="-210" gradientUnits="userSpaceOnUse">
<stop stop-color="#FFCC6E" stop-opacity="0.39546"/>
<stop offset="1" stop-color="#FFAE61" stop-opacity="0.01"/>
</linearGradient>
<linearGradient id="paint3_linear" x1="2004.33" y1="368.134" x2="1778.9" y2="738.417" gradientUnits="userSpaceOnUse">
<stop stop-color="#FFAE56" stop-opacity="0.39546"/>
<stop offset="1" stop-color="#FF8613" stop-opacity="0.01"/>
</linearGradient>
<linearGradient id="paint4_linear" x1="1127.19" y1="-18.9433" x2="613.481" y2="-517.237" gradientUnits="userSpaceOnUse">
<stop stop-color="#FFC160"/>
<stop offset="1" stop-color="#FF8613" stop-opacity="0.01"/>
</linearGradient>
<clipPath id="clip0">
<rect width="2874" height="620" fill="white"/>
</clipPath>
</defs>
</svg>
